!!!COM: Debussy, (Achille-)Claude
!!!OTL: String Quartet, op. 10
!!!OMV: I: Animé et très décidé (Animated and Very Decided)
!!!example: 154
!!!work: Deb-13
**kern	**dynam	**kern	**dynam	**kern	**dynam	**kern	**dynam
*part4	*part4	*part3	*part3	*part2	*part2	*part1	*part1
*staff4	*	*staff3	*	*staff2	*	*staff1	*
*I"Violoncello	*	*I"Viola	*	*I"Violin II	*	*I"Violin I	*
*I'Vc.	*	*I'Vla.	*	*I'Vln. II	*	*I'Vln. I	*
*clefF4	*	*clefC3	*	*clefG2	*	*clefG2	*
*k[b-e-]	*	*k[b-e-]	*	*k[b-e-]	*	*k[b-e-]	*
*B-:	*	*B-:	*	*B-:	*	*B-:	*
*M4/4	*	*M4/4	*	*M4/4	*	*M4/4	*
*MM121	*	*MM121	*	*MM121	*	*MM121	*
=151	=151	=151	=151	=151	=151	=151	=151
1f#Xt	.	12g#XL	.	12ddL 12ff#X	.	4ddd~	.
.	.	12a#X	.	12dd 12ff#	.	.	.
.	.	12g#J	.	12ddJ 12ff#	.	.	.
.	.	12a#L	.	12ee-L 12gg#X	.	4ccc~	.
.	.	12g#	.	12ee- 12gg#	.	.	.
.	.	12a#J	.	12ee-J 12gg#	.	.	.
.	.	.	.	.	.	16qgg#X/LL	.
.	.	.	.	.	.	16qaa#X/JJ	.
.	.	12g#L	.	12ddL 12ff#	.	6gg~	.
.	.	12a#	.	12dd 12ff#	.	.	.
.	.	12g#J	.	12ddJ 12ff#	.	6ff#X~	.
.	.	12a#L	.	12ee-L 12gg#	.	.	.
.	.	12g#	.	12ee- 12gg#	.	6gg~	.
.	.	12a#J	.	12ee-J 12gg#	.	.	.
=152	=152	=152	=152	=152	=152	=152	=152
6f#X	>	12g#XL	>	12ddL 12ff#X	>	(2ddd	>
.	.	12a#X	.	12dd 12ff#	.	.	.
6en	.	12g#J	.	12ddJ 12ff#	.	.	.
.	.	12a#L	.	12ee-L 12gg#X	.	.	.
6Bn	.	12g#	.	12ee- 12gg#	.	.	.
.	.	12bnJ	.	12ee-J 12gg#	.	.	.
6En	.	12g#L	.	12ddL 12ff#	.	2ccc#X)	]]
.	.	12b	.	12dd 12ff#	.	.	.
6BBn	.	12g#J	.	12ddJ 12ff#	.	.	.
.	.	12enL	.	12ee-L 12gg#	.	.	.
6EEn	]]	12g#	.	12ee- 12gg#	.	.	.
.	.	12eJ	]]	12ee-J 12gg#	]]	.	.
=153	=153	=153	=153	=153	=153	=153	=153
(12DDL	mp	1A 1a	mp	(4dd	mp	(12bb-L	mp
12AA	.	.	.	.	.	12dd	.
12F#XJ)	.	.	.	.	.	12f#XJ	.
(12F#L	.	.	.	8cc#XL	.	12f#L	.
12AA	.	.	.	.	.	12dd	.
.	.	.	.	8ddJ)	.	.	.
12DDJ)	.	.	.	.	.	12bb-J)	.
(12DDL	.	.	.	(4cc#	.	(12aaL	.
12AA	.	.	.	.	.	12dd	.
12F#J)	.	.	.	.	.	12f#J	.
(12F#L	.	.	.	8bnL	.	12f#L	.
12AA	.	.	.	.	.	12dd	.
.	.	.	.	8cc#J)	.	.	.
12DDJ)	.	.	.	.	.	12aaJ)	.
=154	=154	=154	=154	=154	=154	=154	=154
(12DDL	.	(12f#XL	.	(12bnL	.	(12gg#XL	.
12BBn	.	12d	.	12g#X	.	12ff#X	.
12F#XJ)	.	12B-J)	.	12f#XJ)	.	12ddJ)	.
(12F#L	.	(12B-L	.	(12dL	.	(2dd	.
12BB	.	12G#X	.	12f#	.	.	.
12DDJ)	.	12F#XJ)	.	12g#J)	.	.	.
(12DDL	.	(12f#L	.	(12bL	.	.	.
12BB	.	12d	.	12g#	.	.	.
12F#J)	.	12B-J)	.	12f#J)	.	.	.
(12F#L	.	(12B-L	.	(12dL	.	4een)	.
12BB	.	12G#	.	12f#	.	.	.
12DDJ)	.	12F#J)	.	12g#J)	.	.	.
=155	=155	=155	=155	=155	=155	=155	=155
!LO:TX:t=dim.	!	!LO:TX:t=dim.	!	!LO:TX:t=dim.	!	!LO:TX:t=dim.	!
(12DDL	.	(4Bn	.	(4b-X	.	(12ff#XL	.
12AA	.	.	.	.	.	12a	.
12F#XJ)	.	.	.	.	.	12dJ)	.
(12F#L	.	8AL	.	8aL	.	(12dL	.
12AA	.	.	.	.	.	12a	.
.	.	8BJ)	.	8b-J)	.	.	.
12DDJ)	.	.	.	.	.	12ff#J)	.
(12DDL	.	(4A	.	(4a	.	(12ff#L	.
12AA	.	.	.	.	.	12a	.
12F#J)	.	.	.	.	.	12dJ)	.
(12F#L	.	8G#XL	.	8g#XL	.	(12dL	.
12AA	.	.	.	.	.	12a	.
.	.	8AJ)	.	8aJ)	.	.	.
12DDJ)	.	.	.	.	.	12ff#J)	.
=156	=156	=156	=156	=156	=156	=156	=156
(12DDL	.	2G#X	.	2g#X	.	(12ff#XL	.
12BBn	.	.	.	.	.	12bn	.
12F#XJ)	.	.	.	.	.	12dJ)	.
(12F#L	.	.	.	.	.	(12dL	.
12BB	.	.	.	.	.	12a	.
12DDJ)	.	.	.	.	.	12ff#J)	.
(12DDL	.	(6F#X	.	(6f#X	.	(12ff#L	.
12BB	.	.	.	.	.	12b	.
12F#J)	.	6G#	.	6g#	.	12dJ)	.
(12F#L	.	.	.	.	.	(12dL	.
12BB	.	6A)	.	6a)	.	12a	.
12DDJ)	.	.	.	.	.	12ff#J)	.
=157	=157	=157	=157	=157	=157	=157	=157
(12DDL	.	(4Bn	.	(4bn	.	(12ff#XL	.
12AA	.	.	.	.	.	12a	.
12F#XJ)	.	.	.	.	.	12dJ)	.
(12F#L	.	8AL	.	8aL	.	(12dL	.
12AA	.	.	.	.	.	12a	.
.	.	8BJ)	.	8bJ)	.	.	.
12DDJ)	.	.	.	.	.	12ff#J)	.
(12DDL	.	(4A	.	(4a	.	(12ff#L	.
12AA	.	.	.	.	.	12a	.
12F#J)	.	.	.	.	.	12dJ)	.
(12F#L	.	8G#XL	.	8g#XL	.	(12dL	.
12AA	.	.	.	.	.	12a	.
.	.	8AJ)	.	8aJ)	.	.	.
12DDJ)	.	.	.	.	.	12ff#J)	.
=158	=158	=158	=158	=158	=158	=158	=158
(12DDL	.	2G#X	.	2g#X	.	(12ff#XL	.
12BBn	.	.	.	.	.	12bn	.
12F#XJ)	.	.	.	.	.	12dJ)	.
(12F#L	.	.	.	.	.	(12dL	.
12BB	.	.	.	.	.	12a	.
12DDJ)	.	.	.	.	.	12ff#J)	.
(12DDL	.	(4F#X	.	(4f#X	.	(12ddL	.
12BB	.	.	.	.	.	12g#X	.
12F#J)	.	.	.	.	.	12BnJ)	.
(12F#L	.	4En)	.	4en)	.	(12BL	.
12BB	.	.	.	.	.	12g#	.
12DDJ)	.	.	.	.	.	12ddJ)	.
=159	=159	=159	=159	=159	=159	=159	=159
(12DDL	.	(4D	.	(4d	.	(12aL	.
12AA	.	.	.	.	.	12f#X	.
12F#XJ)	.	.	.	.	.	12AJ)	.
(12F#L	.	8C#XL	.	8c#XL	.	(12AL	.
12AA	.	.	.	.	.	12f#	.
.	.	8DJ)	.	8dJ)	.	.	.
12DDJ)	.	.	.	.	.	12aJ)	.
(12DDL	.	(4C#	.	(4c#	.	(12aL	.
12AA	.	.	.	.	.	12f#	.
12F#J)	.	.	.	.	.	12AJ)	.
(12F#L	.	8CnL	.	8cnL	.	(12AL	.
12AA	.	.	.	.	.	12f#	.
.	.	8C#XJ)	.	8c#XJ)	.	.	.
12DDJ)	.	.	.	.	.	12aJ)	.
=	=	=	=	=	=	=	=
*-	*-	*-	*-	*-	*-	*-	*-
!!!system-decoration: [(s1,s2,s3,s4)]
!!!CDT: 1862/08/22-1918/03/25
!!!CBL: St Germain-en-Laye, France
!!!CDL: Paris, France
!!!CNT: French
!!!AGN: Instrumental; Chamber
!!!MCN:
!!!MDT: 1893/12/29
!!!MGN: Ysaÿe Quartet
!!!MLC: Paris, France
!!!MPD: 1893
!!!MPN: Crickboom, Mathieu; Hout, Léon; Jacob, Joseph; Ysaÿe, Eugène
!!!ODT: 1893
!!!PDT: 1894
!!!excerpt-start-measure: 151
!!!excerpt-end-measure: 157
!!!excerpt-start-time: 5:16
!!!excerpt-end-time: 5:35
!!!EEV: 2020/01/22
!!!ONB: Converted from MusicXML on 2020/01/22
